flaticon/hand-gestures/tap-90.svg

<svg xmlns="http://www.w3.org/2000/svg" width="32" height="32" viewBox="0 0 24 24">
    <path d="M 18.414062 9.199219 C 18.054688 9.199219 17.695312 9.320312 17.414062 9.558594 L 17.414062 9.199219 C 17.414062 8.238281 16.65625 7.199219 15.613281 7.199219 C 15.253906 7.199219 14.894531 7.320312 14.613281 7.558594 L 14.613281 3.601562 C 14.613281 3.121094 14.414062 2.640625 14.09375 2.238281 C 13.773438 1.839844 13.296875 1.601562 12.816406 1.601562 C 12.054688 1.601562 11.414062 2.199219 11.09375 2.878906 C 10.816406 2.601562 10.414062 2.398438 9.976562 2.398438 C 8.933594 2.398438 8.175781 3.441406 8.175781 4.398438 L 8.175781 11.238281 C 7.816406 10.480469 7.335938 9.761719 6.855469 9.28125 C 6.214844 8.640625 4.933594 8.601562 4.214844 9.199219 C 4.015625 9.398438 3.335938 10.121094 4.253906 11.398438 C 5.09375 12.558594 5.496094 15 5.734375 16.441406 L 5.816406 16.839844 C 6.335938 19.839844 7.933594 20.800781 8.613281 21.078125 L 8.613281 23.601562 C 8.613281 23.839844 8.773438 24 9.015625 24 C 9.253906 24 9.414062 23.839844 9.414062 23.601562 L 9.414062 20.800781 C 9.414062 20.601562 9.296875 20.441406 9.09375 20.398438 C 9.015625 20.359375 7.175781 19.921875 6.613281 16.71875 L 6.535156 16.320312 C 6.253906 14.679688 5.855469 12.238281 4.933594 10.960938 C 4.65625 10.601562 4.414062 10.121094 4.773438 9.839844 C 5.175781 9.519531 5.976562 9.519531 6.335938 9.878906 C 7.335938 10.878906 8.214844 13 8.214844 14 C 8.214844 14.238281 8.375 14.398438 8.613281 14.398438 C 8.855469 14.398438 9.015625 14.238281 9.015625 14 L 9.015625 4.398438 C 9.015625 3.839844 9.453125 3.199219 10.015625 3.199219 C 10.574219 3.199219 11.015625 3.839844 11.015625 4.398438 L 11.015625 11.601562 C 11.015625 11.839844 11.175781 12 11.414062 12 C 11.65625 12 11.816406 11.839844 11.816406 11.601562 L 11.816406 3.601562 C 11.816406 3.039062 12.253906 2.398438 12.816406 2.398438 C 13.136719 2.398438 13.375 2.640625 13.496094 2.761719 C 13.695312 3 13.816406 3.320312 13.816406 3.601562 L 13.816406 12 C 13.816406 12.238281 13.976562 12.398438 14.214844 12.398438 C 14.453125 12.398438 14.613281 12.238281 14.613281 12 L 14.613281 9.199219 C 14.613281 8.640625 15.054688 8 15.613281 8 C 16.175781 8 16.613281 8.640625 16.613281 9.199219 L 16.613281 11.121094 C 16.613281 11.160156 16.613281 11.160156 16.613281 11.199219 L 16.613281 12.800781 C 16.613281 13.039062 16.773438 13.199219 17.015625 13.199219 C 17.253906 13.199219 17.414062 13.039062 17.414062 12.800781 L 17.414062 11.121094 C 17.453125 10.601562 17.894531 10 18.414062 10 C 18.976562 10 19.414062 10.640625 19.414062 11.199219 L 19.414062 16.800781 C 19.414062 19.160156 19.414062 19.160156 18.855469 19.878906 C 18.695312 20.039062 18.535156 20.28125 18.292969 20.558594 C 18.214844 20.640625 18.214844 20.761719 18.214844 20.839844 L 18.214844 23.601562 C 18.214844 23.839844 18.375 24 18.613281 24 C 18.855469 24 19.015625 23.839844 19.015625 23.640625 L 19.015625 20.960938 C 19.175781 20.71875 19.335938 20.558594 19.453125 20.398438 C 20.214844 19.480469 20.214844 19.359375 20.214844 16.800781 L 20.214844 11.199219 C 20.214844 10.238281 19.453125 9.199219 18.414062 9.199219 Z M 18.414062 9.199219"/>
    <path d="M12.933594 0C12.054688 0 11.253906.320312 10.65625.921875 10.375.839844 10.054688.800781 9.734375.800781 7.976562.800781 6.535156 2.238281 6.535156 4 6.535156 4.160156 6.535156 4.28125 6.574219 4.441406 6.574219 4.679688 6.816406 4.839844 7.015625 4.800781 7.214844 4.761719 7.375 4.558594 7.375 4.320312 7.335938 4.238281 7.335938 4.121094 7.335938 4 7.335938 2.679688 8.414062 1.601562 9.734375 1.601562 10.015625 1.601562 10.296875 1.640625 10.613281 1.761719 10.695312 1.800781 10.773438 1.800781 10.855469 1.800781 11.015625 1.800781 11.136719 1.679688 11.175781 1.558594 11.613281 1.078125 12.253906.800781 12.933594.800781 14.253906.800781 15.335938 1.878906 15.335938 3.199219 15.335938 3.558594 15.253906 3.921875 15.09375 4.238281 15.015625 4.441406 15.09375 4.679688 15.296875 4.761719 15.335938 4.800781 15.414062 4.800781 15.453125 4.800781 15.574219 4.800781 15.734375 4.71875 15.816406 4.601562 16.015625 4.160156 16.136719 3.679688 16.136719 3.199219 16.136719 1.441406 14.695312 0 12.933594 0zM14.214844 19.601562L13.015625 19.601562C12.773438 19.601562 12.613281 19.761719 12.613281 20 12.613281 20.238281 12.773438 20.398438 13.015625 20.398438L14.214844 20.398438C14.453125 20.398438 14.613281 20.238281 14.613281 20 14.613281 19.761719 14.453125 19.601562 14.214844 19.601562zM14.613281 21.199219L12.613281 21.199219C12.375 21.199219 12.214844 21.359375 12.214844 21.601562 12.214844 21.839844 12.375 22 12.613281 22L14.613281 22C14.855469 22 15.015625 21.839844 15.015625 21.601562 15.015625 21.359375 14.855469 21.199219 14.613281 21.199219zM14.613281 21.199219"/>
</svg>

<svg xmlns="http://www.w3.org/2000/svg" width="32" height="32" viewBox="0 0 24 24">
    <path d="M18.414 9.2c-.36 0-.719.12-1 .359v-.36c0-.96-.758-2-1.8-2-.36 0-.72.121-1 .36V3.602c0-.48-.2-.961-.52-1.364a1.666 1.666 0 0 0-1.278-.636c-.761 0-1.402.597-1.722 1.277a1.609 1.609 0 0 0-1.117-.48c-1.043 0-1.801 1.042-1.801 2v6.84c-.36-.759-.84-1.477-1.32-1.958-.641-.64-1.922-.68-2.641-.082-.2.2-.88.922.039 2.2.84 1.16 1.242 3.601 1.48 5.042l.082.399c.52 3 2.118 3.96 2.797 4.238v2.524c0 .238.16.398.403.398.238 0 .398-.16.398-.398V20.8c0-.2-.117-.36-.32-.403-.078-.039-1.918-.476-2.48-3.68l-.079-.398c-.281-1.64-.68-4.082-1.601-5.36-.278-.358-.52-.839-.16-1.12.402-.32 1.203-.32 1.562.039 1 1 1.879 3.121 1.879 4.121 0 .238.16.398.398.398.242 0 .403-.16.403-.398V4.398c0-.558.437-1.199 1-1.199.558 0 1 .64 1 1.2v7.203c0 .238.16.398.398.398.242 0 .402-.16.402-.398v-8c0-.563.438-1.204 1-1.204.32 0 .559.243.68.364.2.238.32.558.32.84V12c0 .238.16.398.399.398.238 0 .398-.16.398-.398V9.2c0-.56.442-1.2 1-1.2.563 0 1 .64 1 1.2V12.8c0 .238.16.398.403.398.238 0 .398-.16.398-.398v-1.68c.04-.52.48-1.121 1-1.121.563 0 1 .64 1 1.2v5.6c0 2.36 0 2.36-.559 3.079-.16.16-.32.402-.562.68-.078.082-.078.203-.078.28v2.763c0 .238.16.398.398.398.242 0 .403-.16.403-.36v-2.68c.16-.241.32-.401.437-.562.762-.918.762-1.039.762-3.597v-5.602c0-.96-.762-2-1.8-2zm0 0"/>
    <path d="M12.934 0c-.88 0-1.68.32-2.278.922A3.35 3.35 0 0 0 9.734.8 3.208 3.208 0 0 0 6.535 4c0 .16 0 .281.04.441 0 .239.241.399.44.36.2-.04.36-.242.36-.48-.04-.083-.04-.2-.04-.321a2.404 2.404 0 0 1 2.4-2.398c.28 0 .562.039.878.16.082.039.16.039.242.039.16 0 .282-.121.32-.242A2.374 2.374 0 0 1 12.935.8a2.407 2.407 0 0 1 2.402 2.398c0 .36-.082.723-.242 1.04-.078.202 0 .44.203.523.039.039.117.039.156.039a.493.493 0 0 0 .363-.2c.2-.44.32-.921.32-1.402 0-1.758-1.44-3.199-3.202-3.199zm0 0M14.215 19.602h-1.2c-.242 0-.402.16-.402.398 0 .238.16.398.403.398h1.199c.238 0 .398-.16.398-.398 0-.238-.16-.398-.398-.398zm0 0M14.613 21.2h-2c-.238 0-.398.16-.398.402 0 .238.16.398.398.398h2c.242 0 .403-.16.403-.398 0-.243-.16-.403-.403-.403zm0 0"/>
</svg>
